apps/scalable/bluefish.svg

<svg height="48" width="48" xmlns="http://www.w3.org/2000/svg" xmlns:xlink="http://www.w3.org/1999/xlink"><linearGradient id="a" gradientUnits="userSpaceOnUse" x1="408.571387983602" x2="408.571387983602" y1="543.798108817013" y2="503.798067617013"><stop offset="0" stop-color="#197cf1"/><stop offset="1" stop-color="#20bcfa"/></linearGradient><rect fill="url(#a)" height="40" ry="20" transform="matrix(1.15 0 0 1.15 -445.857158 -578.367705)" width="40" x="388.57144" y="503.798"/><g fill="#fff" fill-opacity=".846774" transform="matrix(1.011437 0 0 1.011437 8.79608 9.35009)"><path d="m16.963 7.376c-.282-2.796-2.735-5.198-5.341-5.198-2.662 0-5.109.921-7.057 2.451-.517-.016-1.108.041-1.725.189-1.737.415-3.001 1.357-2.823 2.104.118.495.844.774 1.819.79-1.05 1.73-1.666 3.751-1.666 5.918 0 4.196 2.277 7.855 5.652 9.846-.336.364-.645.874-.861 1.484-.48 1.355-.318 2.646.359 2.885.677.24 1.613-.664 2.093-2.018.102-.292.17-.579.215-.855.266.088.551.162.857.206 1.422.205 2.657-.205 2.76-.916.102-.71-.966-1.454-2.389-1.659-.609-.088-1.179-.058-1.645.056-.021-.074-.858-1.596-.931-2.777-.094-1.537.364-3.055 1.361-4.227.39-.456.859-.823 1.359-1.135-.09 1.204.189 2.143.757 2.285.745.187 1.701-1.068 2.135-2.799.037-.149.064-.295.091-.441l.396-.069c2.811-.597 4.881-3.182 4.584-6.12z" fill="#fff" fill-opacity=".846774"/><path d="m13.1 22.686c.282 2.796 2.735 5.198 5.341 5.198 2.662 0 5.109-.921 7.057-2.451.518.016 1.108-.041 1.726-.188 1.737-.415 3.001-1.358 2.823-2.105-.118-.495-.844-.774-1.819-.79 1.05-1.73 1.666-3.75 1.666-5.917 0-4.196-2.277-7.855-5.652-9.846.336-.364.646-.874.861-1.484.479-1.355.318-2.646-.359-2.885-.677-.24-1.613.664-2.093 2.018-.102.292-.17.579-.215.854-.266-.088-.551-.162-.857-.206-1.422-.205-2.657.205-2.76.916-.102.71.966 1.454 2.389 1.659.609.088 1.179.058 1.646-.056.021.074.858 1.596.931 2.777.094 1.537-.364 3.055-1.361 4.227-.39.457-.858.825-1.358 1.137.09-1.204-.188-2.143-.757-2.285-.745-.186-1.701 1.068-2.135 2.799-.037.149-.064.295-.091.441l-.396.069c-2.815.595-4.884 3.181-4.587 6.118z" fill="#fff" fill-opacity=".846774"/></g></svg>

<?xml version="1.0" encoding="UTF-8" standalone="no"?>
<!-- Created with Inkscape (http://www.inkscape.org/) -->

<svg
   xmlns:osb="http://www.openswatchbook.org/uri/2009/osb"
   xmlns:dc="http://purl.org/dc/elements/1.1/"
   xmlns:cc="http://creativecommons.org/ns#"
   xmlns:rdf="http://www.w3.org/1999/02/22-rdf-syntax-ns#"
   xmlns:svg="http://www.w3.org/2000/svg"
   xmlns="http://www.w3.org/2000/svg"
   xmlns:xlink="http://www.w3.org/1999/xlink"
   xmlns:sodipodi="http://sodipodi.sourceforge.net/DTD/sodipodi-0.dtd"
   xmlns:inkscape="http://www.inkscape.org/namespaces/inkscape"
   width="48"
   height="48"
   id="svg5453"
   version="1.1"
   inkscape:version="0.91 r13725"
   sodipodi:docname="bluefish.svg">
  <defs
     id="defs5455">
    <linearGradient
       id="linearGradient4143"
       inkscape:collect="always">
      <stop
         id="stop4145"
         offset="0"
         style="stop-color:#197cf1;stop-opacity:1" />
      <stop
         id="stop4147"
         offset="1"
         style="stop-color:#20bcfa;stop-opacity:1" />
    </linearGradient>
    <linearGradient
       y2="517.79797"
       x2="400.57138"
       y1="545.79797"
       x1="400.57138"
       gradientTransform="matrix(1.4285729,0,0,1.4285729,-163.67403,-235.91408)"
       gradientUnits="userSpaceOnUse"
       id="linearGradient4224"
       xlink:href="#linearGradient4143"
       inkscape:collect="always" />
    <linearGradient
       osb:paint="gradient"
       id="linearGradient4207">
      <stop
         id="stop3371"
         offset="0"
         style="stop-color:#3498db;stop-opacity:1;" />
      <stop
         id="stop3373"
         offset="1"
         style="stop-color:#3498db;stop-opacity:0;" />
    </linearGradient>
  </defs>
  <sodipodi:namedview
     id="base"
     pagecolor="#ffffff"
     bordercolor="#666666"
     borderopacity="1.0"
     inkscape:pageopacity="0"
     inkscape:pageshadow="2"
     inkscape:zoom="7.9999995"
     inkscape:cx="9.4088242"
     inkscape:cy="20.104607"
     inkscape:document-units="px"
     inkscape:current-layer="layer1"
     showgrid="true"
     fit-margin-top="0"
     fit-margin-left="0"
     fit-margin-right="0"
     fit-margin-bottom="0"
     inkscape:window-width="1366"
     inkscape:window-height="633"
     inkscape:window-x="0"
     inkscape:window-y="33"
     inkscape:window-maximized="1"
     inkscape:showpageshadow="false"
     borderlayer="true"
     showguides="true">
    <inkscape:grid
       type="xygrid"
       id="grid4063" />
    <sodipodi:guide
       position="4.2167969e-05,32.000026"
       orientation="32,0"
       id="guide4625" />
    <sodipodi:guide
       position="4.2167969e-05,2.6367188e-05"
       orientation="0,31.999969"
       id="guide4627" />
    <sodipodi:guide
       position="32.000012,2.6367188e-05"
       orientation="-32,0"
       id="guide4629" />
    <sodipodi:guide
       position="32.000012,32.000026"
       orientation="0,-31.999969"
       id="guide4631" />
    <sodipodi:guide
       position="2.0000422,30.000026"
       orientation="28,0"
       id="guide4633" />
    <sodipodi:guide
       position="2.0000422,2.0000264"
       orientation="0,27.999969"
       id="guide4635" />
    <sodipodi:guide
       position="30,17"
       orientation="-28,0"
       id="guide4637" />
    <sodipodi:guide
       position="30.000012,30.000026"
       orientation="0,-27.999969"
       id="guide4639" />
    <sodipodi:guide
       position="9.0000117,23.000026"
       orientation="14,0"
       id="guide4162" />
    <sodipodi:guide
       position="9.0000117,9.0000264"
       orientation="0,13.999969"
       id="guide4164" />
    <sodipodi:guide
       position="22.999981,9.0000264"
       orientation="-14,0"
       id="guide4166" />
    <sodipodi:guide
       position="22.999981,23.000026"
       orientation="0,-13.999969"
       id="guide4168" />
  </sodipodi:namedview>
  <metadata
     id="metadata5458">
    <rdf:RDF>
      <cc:Work
         rdf:about="">
        <dc:format>image/svg+xml</dc:format>
        <dc:type
           rdf:resource="http://purl.org/dc/dcmitype/StillImage" />
        <dc:title></dc:title>
      </cc:Work>
    </rdf:RDF>
  </metadata>
  <g
     inkscape:label="Layer 1"
     inkscape:groupmode="layer"
     id="layer1"
     transform="translate(-384.57143,-499.798)">
    <g
       id="layer1-4"
       inkscape:label="Layer 1">
      <g
         transform="matrix(1.15,0,0,1.15,-61.285728,-78.569705)"
         id="g4280">
        <rect
           ry="20"
           y="503.798"
           x="388.57144"
           height="40"
           width="40"
           id="rect4222"
           style="opacity:1;fill:url(#linearGradient4224);fill-opacity:1.0;stroke:none" />
      </g>
    </g>
    <g
       transform="matrix(1.011437,0,0,1.011437,393.36751,509.14809)"
       id="g3"
       style="fill:#ffffff;fill-opacity:0.84677422">
      <path
         inkscape:connector-curvature="0"
         d="M 16.963,7.376 C 16.681,4.58 14.228,2.178 11.622,2.178 8.96,2.178 6.513,3.099 4.565,4.629 4.048,4.613 3.457,4.67 2.84,4.818 1.103,5.233 -0.161,6.175 0.017,6.922 0.135,7.417 0.861,7.696 1.836,7.712 0.786,9.442 0.17,11.463 0.17,13.63 c 0,4.196 2.277,7.855 5.652,9.846 -0.336,0.364 -0.645,0.874 -0.861,1.484 -0.48,1.355 -0.318,2.646 0.359,2.885 0.677,0.24 1.613,-0.664 2.093,-2.018 0.102,-0.292 0.17,-0.579 0.215,-0.855 0.266,0.088 0.551,0.162 0.857,0.206 1.422,0.205 2.657,-0.205 2.76,-0.916 0.102,-0.71 -0.966,-1.454 -2.389,-1.659 C 8.247,22.515 7.677,22.545 7.211,22.659 7.19,22.585 6.353,21.063 6.28,19.882 6.186,18.345 6.644,16.827 7.641,15.655 8.031,15.199 8.5,14.832 9,14.52 c -0.09,1.204 0.189,2.143 0.757,2.285 0.745,0.187 1.701,-1.068 2.135,-2.799 0.037,-0.149 0.064,-0.295 0.091,-0.441 l 0.396,-0.069 c 2.811,-0.597 4.881,-3.182 4.584,-6.12 z"
         id="path5"
         style="fill:#ffffff;fill-opacity:0.84677422" />
      <path
         inkscape:connector-curvature="0"
         d="m 13.1,22.686 c 0.282,2.796 2.735,5.198 5.341,5.198 2.662,0 5.109,-0.921 7.057,-2.451 0.518,0.016 1.108,-0.041 1.726,-0.188 1.737,-0.415 3.001,-1.358 2.823,-2.105 -0.118,-0.495 -0.844,-0.774 -1.819,-0.79 1.05,-1.73 1.666,-3.75 1.666,-5.917 0,-4.196 -2.277,-7.855 -5.652,-9.846 C 24.578,6.223 24.888,5.713 25.103,5.103 25.582,3.748 25.421,2.457 24.744,2.218 24.067,1.978 23.131,2.882 22.651,4.236 22.549,4.528 22.481,4.815 22.436,5.09 22.17,5.002 21.885,4.928 21.579,4.884 20.157,4.679 18.922,5.089 18.819,5.8 c -0.102,0.71 0.966,1.454 2.389,1.659 0.609,0.088 1.179,0.058 1.646,-0.056 0.021,0.074 0.858,1.596 0.931,2.777 0.094,1.537 -0.364,3.055 -1.361,4.227 -0.39,0.457 -0.858,0.825 -1.358,1.137 0.09,-1.204 -0.188,-2.143 -0.757,-2.285 -0.745,-0.186 -1.701,1.068 -2.135,2.799 -0.037,0.149 -0.064,0.295 -0.091,0.441 l -0.396,0.069 c -2.815,0.595 -4.884,3.181 -4.587,6.118 z"
         id="path7"
         style="fill:#ffffff;fill-opacity:0.84677422" />
    </g>
  </g>
</svg>
